48x48/apps/chrome-ncpaehbhmfoodbceflpbdocjhpokkbmo-Default.svg

<svg xmlns="http://www.w3.org/2000/svg" width="48" height="48" version="1.1">
 <path style="fill:#4f4f4f" d="m24 4a20 20 0 0 0 -20 20 20 20 0 0 0 20 20 20 20 0 0 0 20 -20 20 20 0 0 0 -20 -20z"/>
 <path opacity=".2" d="m4.0215 24.418a20 20 0 0 0 -0.0215 0.582 20 20 0 0 0 20 20 20 20 0 0 0 20 -20 20 20 0 0 0 -0.021 -0.418 20 20 0 0 1 -19.979 19.418 20 20 0 0 1 -19.978 -19.582z"/>
 <path fill="#f4f4f7" style="opacity:0.1" d="m24 4a20 20 0 0 0 -20 20 20 20 0 0 0 0.0215 0.418 20 20 0 0 1 19.978 -19.418 20 20 0 0 1 19.979 19.582 20 20 0 0 0 0.021 -0.582 20 20 0 0 0 -20 -20z"/>
 <path style="opacity:0.2" d="m 17.714844,14.990298 c -0.28395,-5e-4 -0.573481,0.0098 -0.859375,0.0098 -1.671007,-0.03585 -3.34052,0.02183 -5.011719,0 -1.158548,-0.0094 -0.891961,1.447762 -0.556641,2.060547 3.707464,6.775185 8.088193,14.363862 12.171875,21.515625 0.784641,1.187268 1.611104,-0.425593 2.050782,-1.115234 1.111217,-1.742937 2.025706,-3.569902 2.964843,-5.396485 0.396662,-1.227648 -0.710707,-2.171941 -1.105468,-3.212891 -2.408822,-4.387564 -4.942511,-8.692109 -7.402344,-13.041015 -0.588664,-0.724168 -1.400105,-0.818812 -2.251953,-0.820313 z m 12.005859,0.0098 c -1.278608,0 -0.464844,1.439453 -0.464844,1.439453 0,0 1.917232,3.636254 3.021485,5.625 1.104254,1.988751 1.700005,0.275236 1.976562,-0.275391 0.995024,-1.981117 1.859216,-4.046419 2.556641,-5.417968 0.697425,-1.371551 -0.755859,-1.371094 -0.755859,-1.371094 z"/>
 <path style="fill:#f4f4f7" d="M 17.714844 13.990234 C 17.430894 13.989734 17.141363 14 16.855469 14 C 15.184462 13.96415 13.514949 14.021828 11.84375 14 C 10.685202 13.9906 10.951789 15.447762 11.287109 16.060547 C 14.994573 22.835732 19.375302 30.424409 23.458984 37.576172 C 24.243625 38.76344 25.070088 37.150579 25.509766 36.460938 C 26.620983 34.718001 27.535472 32.891036 28.474609 31.064453 C 28.871271 29.836805 27.763902 28.892512 27.369141 27.851562 C 24.960319 23.463998 22.42663 19.159453 19.966797 14.810547 C 19.378133 14.086379 18.566692 13.991735 17.714844 13.990234 z M 29.720703 14 C 28.442095 14 29.255859 15.439453 29.255859 15.439453 C 29.255859 15.439453 31.173091 19.075707 32.277344 21.064453 C 33.381598 23.053204 33.977349 21.339689 34.253906 20.789062 C 35.24893 18.807945 36.113122 16.742643 36.810547 15.371094 C 37.507972 13.999543 36.054688 14 36.054688 14 L 29.720703 14 z"/>
 <path style="fill:#f4f4f7;opacity:0.2" d="M 17.714844 13.990234 C 17.430894 13.989734 17.141363 14 16.855469 14 C 15.184462 13.96415 13.514949 14.021828 11.84375 14 C 10.972814 13.992934 10.908685 14.813667 11.072266 15.482422 C 11.178177 15.197584 11.411432 14.996492 11.84375 15 C 13.514949 15.02183 15.184462 14.96415 16.855469 15 C 17.141363 15 17.430894 14.989734 17.714844 14.990234 C 18.566692 14.991735 19.378133 15.086379 19.966797 15.810547 C 22.42663 20.159453 24.960319 24.463998 27.369141 28.851562 C 27.646764 29.58363 28.267007 30.270427 28.478516 31.039062 C 28.851404 29.824034 27.761115 28.885165 27.369141 27.851562 C 24.960319 23.463998 22.42663 19.159453 19.966797 14.810547 C 19.378133 14.086379 18.566692 13.991735 17.714844 13.990234 z M 29.720703 14 C 28.771738 14 28.976475 14.790373 29.144531 15.199219 C 29.252517 15.081579 29.426073 15 29.720703 15 L 36.054688 15 C 36.054688 15 36.569264 15.005393 36.837891 15.298828 C 37.438541 14.007895 36.054688 14 36.054688 14 L 29.720703 14 z"/>
</svg>

<svg xmlns="http://www.w3.org/2000/svg" width="48" height="48"><path style="fill:#4f4f4f" d="M24 4A20 20 0 0 0 4 24a20 20 0 0 0 20 20 20 20 0 0 0 20-20A20 20 0 0 0 24 4z"/><path opacity=".2" d="M4.021 24.418A20 20 0 0 0 4 25a20 20 0 0 0 20 20 20 20 0 0 0 20-20 20 20 0 0 0-.021-.418A20 20 0 0 1 24 44 20 20 0 0 1 4.022 24.418z"/><path fill="#f4f4f7" style="opacity:.1" d="M24 4A20 20 0 0 0 4 24a20 20 0 0 0 .021.418A20 20 0 0 1 24 5a20 20 0 0 1 19.979 19.582 20 20 0 0 0 .02-.582A20 20 0 0 0 24 4z"/><path style="opacity:.2" d="M17.715 14.99c-.284 0-.574.01-.86.01-1.67-.036-3.34.022-5.011 0-1.159-.01-.892 1.448-.557 2.06 3.708 6.776 8.088 14.365 12.172 21.516.785 1.188 1.611-.425 2.05-1.115 1.112-1.743 2.026-3.57 2.966-5.396.396-1.228-.711-2.172-1.106-3.213-2.409-4.388-4.942-8.692-7.402-13.041-.589-.725-1.4-.82-2.252-.82zM29.72 15c-1.279 0-.465 1.44-.465 1.44s1.917 3.636 3.021 5.625c1.105 1.988 1.7.275 1.977-.276.995-1.981 1.86-4.046 2.557-5.418.697-1.371-.756-1.37-.756-1.37z"/><path style="fill:#f4f4f7" d="M17.715 13.99c-.284 0-.574.01-.86.01-1.67-.036-3.34.022-5.011 0-1.159-.01-.892 1.448-.557 2.06 3.708 6.776 8.088 14.364 12.172 21.516.785 1.187 1.611-.425 2.05-1.115 1.112-1.743 2.026-3.57 2.966-5.397.396-1.227-.711-2.171-1.106-3.212-2.409-4.388-4.942-8.693-7.402-13.041-.589-.725-1.4-.82-2.252-.82zM29.72 14c-1.279 0-.465 1.44-.465 1.44s1.917 3.636 3.021 5.624c1.105 1.99 1.7.276 1.977-.275.995-1.981 1.86-4.046 2.557-5.418C37.508 14 36.055 14 36.055 14H29.72z"/><path style="fill:#f4f4f7;opacity:.2" d="M17.715 13.99c-.284 0-.574.01-.86.01-1.67-.036-3.34.022-5.011 0-.871-.007-.935.814-.772 1.482.106-.284.34-.486.772-.482 1.67.022 3.34-.036 5.011 0 .286 0 .576-.01.86-.01.852.002 1.663.096 2.252.82 2.46 4.35 4.993 8.654 7.402 13.042.278.732.898 1.418 1.11 2.187.372-1.215-.718-2.154-1.11-3.187-2.409-4.388-4.942-8.693-7.402-13.041-.589-.725-1.4-.82-2.252-.82zM29.72 14c-.95 0-.745.79-.576 1.2.108-.118.281-.2.576-.2h6.334s.514.005.783.299c.6-1.291-.783-1.299-.783-1.299H29.72z"/></svg>
